X:1
T:Full of Wrath, his Threat'ning Breath
T:Humphrey Brailsford (1658-1733)
T:Jeremy Taylor
T:Full of Wrath, his Threat'ning Breath
C:Humphrey Brailsford
C:(1658-1733)
Z:Jeremy Taylor
%%score 1 2
L:1/8
M:4/4
K:Cmin
V:1 treble-8 transpose=-12 nm="Voice"
V:2 bass nm="Basso Continuo"
V:1
 z8 | z8 | z8 | z8 | z2 GC E>F G/>=A/=B/>d/ | c2 ee d/G/=B c/e/d/c/ | =B2 cD Ee/d/ B=A/G/ | %7
w: ||||Full of wrath, _ _ _ _ _|_ full of wrath, _ his threat'- * ning _|breath Belch- ing nought but _ chains and _|
 e2 fd =BG c2 | d2 de/c/ d =B2 B | c/>=B/c/>d/ e/>d/c/>e/ d B2 B | cE/>F/ F>G G2 BB | %11
w: death, nought but chains and death,|Saul was ar- * rest- ed, ar-|rest- * * * * * * * * ed, ar-|rest- ed _ in his way By a|
 BAAA A/G/G Ge/d/ | =B/>c/d z d edfd | =BG e2 d>d e/d/c/e/ | d/c/=B/d/ ce/d/ cB/=A/ BA/G/ | %15
w: voice, _ by a voice _ and light, _ _|_ _ _ That if a thou- sand|days Should join, join their rays _ _ _|_ _ _ _ _ To _ beau- ti- * fy a _|
 G3 B BAAG | GA/G/ FE/D/ EC A2 | z DE=E F^F GA/G/ | AB/=A/ Bc/=B/ ce/d/ BA/G/ | %19
w: day It would not show so|glo- * * * ri- ous and so bright,|it would not show so glo- * *|* * * * * * * * * * ri- ous|
 e/d/c/=B/ c_B BAAG | GA/G/ FE/D/ EC A2 | z DE=E F^F GA/G/ | AB/=A/ Bc/=B/ ce/d/ BA/G/ | %23
w: and _ so _ bright, it would not show so|glo- * * * ri- ous and so bright,|it would not show so glo- * *|* * * * * * * * * * ri- ous|
 e/d/c/=B/ c2 z4 | z8 | z8 | z8 | z B BA/G/ AG GF/E/ | FD =B,2 z GA=A | Bc ^FG/>=A/ c/B/A/G/ G2 | %30
w: and _ so _ bright.||||On his _ a- maz- ed eyes _ it|night did fling, That day might|break, might break _ _ _ _ with- * in,|
 z Ged =B2 Ge | dB e2 d>d eG | =A/=B/c B>B c>d ef | g/f/e/f/ g<e z4 | z2 g2 =ec f2 | %35
w: And by these beams, by these|beams of faith Make of him a|child _ of wrath Be- come a ves- sel|full _ of _ glo- ry.|Lord, curb us, Lord,|
 dBed _dc cB/A/ | GBc=B dB c>d | e4 z ddf | dB e2 c=A d2 | d=B c/D/E/C/ G>G AG | F>E Bc D>B c=A | %41
w: curb is in our dark and sin- * ful|way, we hum- bly, hum- bly, hum- bly|pray, When we down,|down, down, down, down, down, down,|hor- rid pre- ci- pi- ces run With feet that|thirst to be un- done, With feet that|
 d=B c>d e>f gG | ed/e/4d/4 c>=B c c3 | z GAG F>E Bc | D>D EC d=B c>d | e>f gG ed/e/4d/4 c>=B | %46
w: thirst to be un- done, That this may|be _ _ _ _ our sto- ry,|With feet that first to be un-|done, With feet that thirst to be un-|done, That this may be _ _ _ _ our|
 c2 c6 |] %47
w: sto- ry.|
V:2
 z G,C,D, E,F,/E,/ D,C, | =B,,CG,=A, B,C/B,/ _A,G, | F,G,F,D, E,F,/E,/ D,C, | %3
 =B,,2 E,,2 F,,2 G,,2 | C,4 C,4 | C,CCB, B,G,A,F, | G,G,,A,,F, E,F,G,G,, | C,CDD, E,/F,/G, A,C | %8
 =B,G,/F,/ E,D,/C,/ G, G,,2 G, | A,G,/>F,/ E,D,/>C,/ G, G,,2 G, | A,G,A,B, E,2 D,D, | %11
 E,F,=B,,B,, B,,C,_B,,A,, | G,,G,C=B, CG, F,/G,/A, | G,E,D,C, =B,,G,,C,A,, | %14
 _B,,G,,A,,F,, C,2 D,2 | G,,C,/D,/ E,E,/F,/ G,F,F,E, | E,D, D,C,/B,,/ A,G,"^2"G,F, | %17
 F,"^7"E,E,C, _D,C,C,"^7""^6"B,, | A,,G,,G,,F,, F,,2 G,,2 | G,,2 C,E,/F,/ G,F,F,E, | %20
 E,D, D,C,/B,,/ A,G,G,F, | F,E, E,D,/C,/ _D,C,C,B,, | A,,G,,G,,F,, F,,2 G,,2 | %23
 G,,2 C,G, C,D, E,F,/E,/ | D,C,=B,,C G,=A, _B,C/B,/ | _A,G,F,G, F,D, E,F,/E,/ | %26
 D,C, =B,,2 E,,2 F,,2 | G,,2 C,6 | C,F, G,>F, E,C,F,D, | G,C,D,G,, D,,2 G,,G, | %30
 F,E,C,D, G,>F, E,D,/C,/ | =B,,G,,C,B,, _B,,=A,,_A,,G,, | F,,/>E,,/"^7"D,, G,,G,/F,/ E,D,C,A,, | %33
 B,,2 E,2 A,2 F,D, | G,2 =E,C,"^7""^5" F,2 D,B,, |"^7""^5" E,2 C,A,, B,,G,,A,,B,, | %36
 E,,F,, G,,2 G,>F, E,D, | C,A,A,C A,F, B,2 | B,,G,E,C, F,2 F,,D, | B,,G,,A,,F,, G,,G,F,E, | %40
 D,C,B,,A,, G,,B, A,G,/F,/ | G,>F, E,D, C,D,E,F, | G,2 G,,2 C,D,E,F, | G,"^2"F,F,E, D,C,B,,A,, | %44
 G,,B, A,G,/F,/ G,>F, E,D, | C,D,E,"^7"F, G,F,, G,,2 | C,8 |] %47

